dist/icons/svgs/sync-solid.svg

<svg xmlns="http://www.w3.org/2000/svg" width="24" height="24" fill="currentcolor" class="icon-sync-solid" viewBox="0 0 24 24">
  <path d="M6.10156 9.92969C5.86719 10.5938 5.125 10.9453 4.5 10.7109C3.83594 10.4766 3.48438 9.77344 3.71875 9.10938C4.14844 7.89844 4.85156 6.76562 5.78906 5.82812C9.22656 2.42969 14.7344 2.42969 18.1719 5.82812L18.8359 6.53125V4.5C18.8359 3.83594 19.4219 3.25 20.0859 3.25C20.7891 3.25 21.3359 3.83594 21.3359 4.5V9.5C21.3359 10.2031 20.7891 10.75 20.0859 10.75H15.125C14.4219 10.75 13.875 10.2031 13.875 9.5C13.875 8.83594 14.4219 8.25 15.125 8.25H17.0781L16.4141 7.58594C13.9531 5.16406 10.0078 5.16406 7.54688 7.58594C6.88281 8.28906 6.375 9.07031 6.10156 9.92969ZM3.52344 13.3281C3.5625 13.2891 3.64062 13.2891 3.67969 13.2891C3.75781 13.2891 3.79688 13.25 3.875 13.25H8.875C9.53906 13.25 10.125 13.8359 10.125 14.5C10.125 15.2031 9.53906 15.75 8.875 15.75H6.88281L7.54688 16.4531C10.0078 18.875 13.9531 18.875 16.4141 16.4531C17.0781 15.75 17.5859 14.9688 17.8594 14.1094C18.0938 13.4453 18.8359 13.0938 19.4609 13.3281C20.125 13.5625 20.4766 14.2656 20.2422 14.9297C19.8125 16.1406 19.1094 17.2344 18.1719 18.2109C14.7344 21.6094 9.22656 21.6094 5.78906 18.2109L5.125 17.5078V19.5C5.125 20.2031 4.53906 20.75 3.875 20.75C3.17188 20.75 2.625 20.2031 2.625 19.5V14.5391C2.625 14.4609 2.625 14.3828 2.625 14.3438C2.625 14.2656 2.625 14.2266 2.66406 14.1875C2.70312 13.9922 2.82031 13.7969 2.97656 13.6406C3.13281 13.4844 3.32812 13.3672 3.52344 13.3281Z"/>
</svg>

<svg xmlns="http://www.w3.org/2000/svg" width="24" height="24" fill="currentColor" class="icon-sync-solid" viewBox="0 0 24 24">
  <path d="M6.102 9.93c-.235.664-.977 1.015-1.602.78a1.25 1.25 0 0 1-.781-1.6 8.8 8.8 0 0 1 2.07-3.282 8.794 8.794 0 0 1 12.383 0l.664.703V4.5c0-.664.586-1.25 1.25-1.25.703 0 1.25.586 1.25 1.25v5c0 .703-.547 1.25-1.25 1.25h-4.961c-.703 0-1.25-.547-1.25-1.25 0-.664.547-1.25 1.25-1.25h1.953l-.664-.664a6.32 6.32 0 0 0-8.867 0c-.664.703-1.172 1.484-1.445 2.344m-2.579 3.398c.04-.039.118-.039.157-.039.078 0 .117-.039.195-.039h5c.664 0 1.25.586 1.25 1.25 0 .703-.586 1.25-1.25 1.25H6.883l.664.703a6.32 6.32 0 0 0 8.867 0c.664-.703 1.172-1.484 1.445-2.344.235-.664.977-1.015 1.602-.78a1.25 1.25 0 0 1 .781 1.6c-.43 1.212-1.133 2.305-2.07 3.282a8.794 8.794 0 0 1-12.383 0l-.664-.703V19.5c0 .703-.586 1.25-1.25 1.25-.703 0-1.25-.547-1.25-1.25v-5.156c0-.078 0-.117.04-.156.038-.196.155-.391.312-.547.156-.157.351-.274.546-.313"/>
</svg>
